Sources/FrostedUI/Resources/Icons.xcassets/table32.imageset/table-32.svg

<svg width="32" height="32" viewBox="0 0 32 32" fill="none" xmlns="http://www.w3.org/2000/svg" data-fui-icon="true">
  <path
    d="M25.4297 2.25C27.8156 2.25 29.75 4.18444 29.75 6.57031V25.4297C29.75 27.8156 27.8156 29.75 25.4297 29.75H6.57031C4.18444 29.75 2.25 27.8156 2.25 25.4297V6.57031C2.25 4.18444 4.18444 2.25 6.57031 2.25H25.4297ZM3.75 10.8633V25.4297C3.75 26.9871 5.01287 28.25 6.57031 28.25H9.75V10.8633H3.75ZM11.25 10.8633V28.25H25.4297C26.9871 28.25 28.25 26.9871 28.25 25.4297V10.8633H11.25ZM6.57031 3.75C5.01287 3.75 3.75 5.01287 3.75 6.57031V9.36328H9.75V3.75H6.57031ZM11.25 9.36328H28.25V6.57031C28.25 5.01287 26.9871 3.75 25.4297 3.75H11.25V9.36328Z"
    fill="currentColor"
  />
</svg>

<svg xmlns="http://www.w3.org/2000/svg" width="32" height="32" fill="none" data-fui-icon="true" viewBox="0 0 32 32"><path fill="currentColor" d="M25.43 2.25a4.32 4.32 0 0 1 4.32 4.32v18.86a4.32 4.32 0 0 1-4.32 4.32H6.57a4.32 4.32 0 0 1-4.32-4.32V6.57a4.32 4.32 0 0 1 4.32-4.32zM3.75 10.863V25.43a2.82 2.82 0 0 0 2.82 2.82h3.18V10.863zm7.5 0V28.25h14.18a2.82 2.82 0 0 0 2.82-2.82V10.863zM6.57 3.75a2.82 2.82 0 0 0-2.82 2.82v2.793h6V3.75zm4.68 5.613h17V6.57a2.82 2.82 0 0 0-2.82-2.82H11.25z"/></svg>
